X:135
T:Gan Ainm
R:double jig
S:Dermot McLaughlin
Z:Transcribed by Larry Sanger.  Not exact, but close to the first time through.
M:6/8
K:G
dBG GBd|ece gfe|dBG DGB|c/c/c B ABc|
dBG GBd|ece gfe|dBG DGB|(3ABA F GBc:|
dBd g2b|agf efg|dBG DGB|c/c/c B ABc|
dBd gbg|agf efg|dBG DGB|(3ABA F GBc:|
dBd gfg|ece gfg|dBG DGB|c/c/c B ABc|
dBd gfg|ece gfe|dBG DGB|(3ABA F GBc:|
